X:1
T:The Nightingale.
M:4/4
L:1/16
K:A
|:EccB c2c2- c2cB ABcA|EAAc BABc dcBA|
|cAAB c2c2- c2cB ABcA|EAAc BABc A2A2:|
|:A2eA AAeA A2eA BABc|A2eA AAeA BABc A2A2:|
|:A2(3ecB A2A2- A2A2 BABc|A2(3ecB A2A2 BABc A2A2:|
|:C2EC D2FD EEGG AAGG|C2EC D2FD EEGG A4:|
|:AAGA FAEA FAGA AAGA|AAGA FAEA C2EC C2EC:|
|AAGA FAEA FAGA AAGA|AAGA AAGA AAGA FAEA|
|FAGA AAGA AAGA AAGA|FAEA FAGA AAGA AAGA|
|AAGA AAGA AAGA AAGA|AAAA AAAA AAAA AAAA|A4||
